Sources/FrostedUI/Resources/Icons.xcassets/handWave24.imageset/hand-wave-24.svg

<svg width="24" height="24" viewBox="0 0 24 24" fill="none" xmlns="http://www.w3.org/2000/svg" data-fui-icon="true">
  <path
    d="M2.98608 17.2192C3.39479 17.1525 3.7806 17.4306 3.84741 17.8394C3.89836 18.1496 4.14273 18.6671 4.56128 19.1714C4.97664 19.6717 5.46645 20.0417 5.90601 20.1724C6.30294 20.2902 6.52945 20.7071 6.41187 21.104C6.29401 21.5009 5.87718 21.7275 5.48022 21.6099C4.65087 21.3636 3.9271 20.7568 3.40698 20.1304C2.89024 19.5078 2.47596 18.7475 2.36694 18.0806C2.30018 17.6719 2.5775 17.2862 2.98608 17.2192ZM8.19995 3.51514C9.07861 2.63648 10.5029 2.63645 11.3816 3.51514L13.1033 5.23584C13.2773 4.6712 13.5869 4.13901 14.0339 3.69189C14.522 3.2038 15.3133 3.20371 15.8015 3.69189L19.5134 7.40381C22.7352 10.6256 22.7352 15.849 19.5134 19.0708C16.2916 22.2926 11.0682 22.2926 7.84644 19.0708L3.25073 14.4751C2.37205 13.5964 2.37205 12.1712 3.25073 11.2925C3.43837 11.1049 3.6519 10.9595 3.87866 10.8521C3.08184 9.96877 3.10696 8.60813 3.95776 7.75732C4.21025 7.50489 4.50823 7.32659 4.82495 7.21924C4.57054 6.43948 4.75219 5.54889 5.37183 4.9292C5.99148 4.30954 6.88211 4.12895 7.66187 4.3833C7.76916 4.06625 7.94731 3.76787 8.19995 3.51514ZM10.321 4.57568C10.0282 4.2828 9.55338 4.2828 9.2605 4.57568C8.96791 4.86859 8.96771 5.34344 9.2605 5.63623L12.7966 9.17139C13.0893 9.46419 13.0892 9.93905 12.7966 10.2319C12.5038 10.5248 12.029 10.5247 11.7361 10.2319L7.49292 5.98975C7.20003 5.69686 6.72525 5.69687 6.43237 5.98975C6.13956 6.28263 6.13951 6.75743 6.43237 7.05029L10.6746 11.2925C10.9674 11.5854 10.9674 12.0601 10.6746 12.353C10.3817 12.6459 9.90691 12.6459 9.61401 12.353L6.07886 8.81787C5.78602 8.52504 5.3112 8.52515 5.01831 8.81787C4.72542 9.11077 4.72542 9.58552 5.01831 9.87842L9.2605 14.1216C9.55335 14.4145 9.55338 14.8892 9.2605 15.1821C8.9676 15.4748 8.49278 15.4749 8.19995 15.1821L5.37183 12.353C5.07905 12.0604 4.60416 12.0606 4.31128 12.353C4.01838 12.6459 4.01838 13.1217 4.31128 13.4146L8.90698 18.0103C11.543 20.6462 15.8168 20.6462 18.4529 18.0103C21.0889 15.3742 21.0889 11.1004 18.4529 8.46436L14.9275 4.93896C14.5015 5.47081 14.3518 6.15107 14.4802 6.78955H14.4792C14.5636 7.2086 14.7684 7.60803 15.0945 7.93408L16.0193 8.85889C16.318 9.15795 16.4046 9.60889 16.238 9.99756C15.7641 11.1035 16.0113 12.387 16.8621 13.2378C17.1548 13.5307 17.1549 14.0055 16.8621 14.2983C16.5692 14.591 16.0944 14.591 15.8015 14.2983C14.593 13.0898 14.1913 11.3032 14.7439 9.70557L14.0339 8.99463C13.553 8.51372 13.2302 7.93294 13.0652 7.31885L10.321 4.57568ZM17.7625 2.45654C19.4167 2.63457 20.7959 3.78289 21.2488 5.20361C21.3744 5.59804 21.1567 6.02005 20.7625 6.146C20.3681 6.27164 19.9462 6.05378 19.8201 5.65967C19.5544 4.82621 18.6882 4.06568 17.6023 3.94873C17.1906 3.90443 16.8923 3.53419 16.9363 3.12256C16.9806 2.7108 17.3507 2.41235 17.7625 2.45654Z"
    fill="currentColor"
  />
</svg>

<svg xmlns="http://www.w3.org/2000/svg" width="24" height="24" fill="none" data-fui-icon="true" viewBox="0 0 24 24"><path fill="currentColor" d="M2.986 17.22a.75.75 0 0 1 .861.62c.051.31.296.827.714 1.331.416.5.905.87 1.345 1.001a.75.75 0 0 1-.426 1.438c-.83-.246-1.553-.853-2.073-1.48-.517-.622-.931-1.383-1.04-2.05a.75.75 0 0 1 .62-.86M8.2 3.514a2.25 2.25 0 0 1 3.182 0l1.721 1.72a3.73 3.73 0 0 1 .93-1.543 1.25 1.25 0 0 1 1.769 0l3.711 3.712A8.25 8.25 0 1 1 7.846 19.07l-4.595-4.596a2.25 2.25 0 0 1 .628-3.623 2.248 2.248 0 0 1 .946-3.633 2.248 2.248 0 0 1 2.837-2.836c.107-.317.285-.615.538-.868m2.121 1.06a.75.75 0 1 0-1.06 1.061l3.536 3.535a.75.75 0 0 1-1.06 1.06L7.492 5.99a.75.75 0 1 0-1.06 1.06l4.242 4.243a.75.75 0 0 1-1.061 1.06L6.079 8.818a.75.75 0 0 0-1.06 1.06l4.242 4.244a.75.75 0 1 1-1.061 1.06l-2.828-2.829a.75.75 0 0 0-1.06 1.062l4.595 4.595a6.75 6.75 0 0 0 9.546-9.546L14.928 4.94a2.25 2.25 0 0 0-.448 1.85c.084.42.288.819.614 1.145l.925.925c.299.299.386.75.219 1.139a2.94 2.94 0 0 0 .624 3.24.75.75 0 0 1-1.06 1.06 4.44 4.44 0 0 1-1.058-4.592l-.71-.711a3.73 3.73 0 0 1-.969-1.676zm7.442-2.118c1.654.178 3.033 1.326 3.486 2.747a.75.75 0 0 1-1.429.456c-.266-.834-1.132-1.594-2.218-1.711a.751.751 0 0 1 .16-1.492"/></svg>
